svgs/regular/chalkboard.svg

<svg xmlns="http://www.w3.org/2000/svg" viewBox="0 0 576 512"><!--! Font Awesome Pro 6.1.1 by @fontawesome - https://fontawesome.com License - https://fontawesome.com/license (Commercial License) Copyright 2022 Fonticons, Inc. --><path d="M552 432H416V384c0-17.67-14.33-32-32-32H256c-17.67 0-32 14.33-32 32v48H24C10.75 432 0 442.7 0 456C0 469.3 10.75 480 24 480h528c13.25 0 24-10.75 24-24C576 442.7 565.3 432 552 432zM368 432h-96v-32h96V432zM80 88c0-4.406 3.594-8 8-8h400c4.406 0 8 3.594 8 8v312H544V88C544 57.13 518.9 32 488 32H88C57.13 32 32 57.13 32 88v312h48V88z"/></svg>

<svg xmlns="http://www.w3.org/2000/svg" viewBox="0 0 576 512"><!--! Font Awesome Pro 6.4.2 by @fontawesome - https://fontawesome.com License - https://fontawesome.com/license (Commercial License) Copyright 2023 Fonticons, Inc. --><path d="M80 88c0-4.4 3.6-8 8-8H488c4.4 0 8 3.6 8 8V400h48V88c0-30.9-25.1-56-56-56H88C57.1 32 32 57.1 32 88V400H80V88zM224 408v24H24c-13.3 0-24 10.7-24 24s10.7 24 24 24H224h24H392h24H552c13.3 0 24-10.7 24-24s-10.7-24-24-24H416V408c0-30.9-25.1-56-56-56H280c-30.9 0-56 25.1-56 56zm144 0v24H272V408c0-4.4 3.6-8 8-8h80c4.4 0 8 3.6 8 8z"/></svg>
